X: 1
P: Kohler's Hornpipe
R: reel
C: from VOM 1991
C: arr. Andy Imbrie
M: 4/4
L: 1/8
K: C
|: G2 |"C"c2 cB "G7"cdef |"C"g^fga "C7/E"gedc|"F"AGAB cdcA|"C"GEcA "C7/E"GECE|"F"FEFG "G"AGAB|
"C"cBcd "Am"egag|"Dm"fedc "G7"AcBd|"Dm"ec"G7"cB "C"c2 :||: gf|"C"egcg egcg|"G"dgBg dgBg|
"Am"ceAe ceAe|"C/E"GcEc GcEc|"F"FEFG "G7"AGAB|"C"cBcd "Am"egag|"Dm/F"fedc "G7"AcBd|"C"eccB c2 :|
